X:1
T:Wallace (Hamilton), irr.
T:Wallace (Hamilton), irr.
T:Clarence Grant Hamilton, 1905
T:Public Domain Courtesy of the Cyber Hymnal™
C:Clarence Grant Hamilton, 1905
Z:Public Domain
Z:Courtesy of the Cyber Hymnal™
%%score ( 1 2 ) ( 3 4 )
L:1/8
Q:1/4=110
M:4/4
K:C
V:1 treble 
V:2 treble 
V:3 bass 
V:4 bass 
V:1
 [EG][EG] | [CE]2 [EG][EG] [FA]2 [Fc]2 | [Fd]2 [Ec]4 [Ec]2 | [EB]2 [Ec]2 A3 [B,G] | [B,G]6 [CG]2 | %5
 [CE]2 G2 [^FA]2 [Fc]2 | [Fd]2 [Ec]4 [Ee][Ee] | [Ed]2 [Ec][Ec] [EB]2 [EA]2 | ^G2 [CA]4 [CE]2 | %9
 [CF]2 [EG]2 [_EA]2 [DB]2 | [Cc]2 [CG][CG] [CA]2 [EA][FB] | [Ec]4 [Ad]4 | [^Ge]6 [Ae][Ae] | %13
 [Af]2 [^Ge][Gd] [=G^c]2 [Fd]2 | [FB]2 [FA][FG] [Ec]2 D2 | G4 G4 | [CG]6 |] %17
V:2
 x2 | x8 | x8 | x4 (D2 C) x | x8 | x8 | x8 | x8 | ED x6 | x8 | x8 | x8 | x8 | x8 | x8 | %15
 (D2 C2) (A,2 B,2) | x6 |] %17
V:3
 [C,C][C,C] | [C,G,]2 [C,C][C,C] [F,C]2 [A,C]2 | [G,B,]2 [C,C]4 [C,G,]2 | %3
 [E,G,]2 [A,,A,]2 (G,2 ^F,)[G,,G,] | [G,,G,]6 [C,E,]2 | [C,G,]2 [E,C]2 [D,C]2 [D,A,]2 | %6
 [G,B,]2 [A,C]4 [A,C][A,C] | [^G,B,]2 A,A, [G,D]2 [A,C]2 | [E,B,]2 A,4 A,2 | %9
 [A,C]2 [G,C]2 [^F,C]2 [=F,G,]2 | [E,G,]2 [C,E,][C,E,] [A,,E,]2 [A,C][A,D] | [A,C]4 [F,A,]4 | %12
 [E,B,]6 [A,^C][A,C] | [D,D]2 [E,B,][E,B,] A,2 [D,A,]2 | G,2 [G,A,][G,B,] A,2 [F,A,]2 | %15
 [G,,E,]4 [G,,F,]4 | [C,E,]6 |] %17
V:4
 x2 | x8 | x8 | x4 D,3 x | x8 | x8 | x8 | x8 | x8 | x8 | x8 | x8 | x8 | x8 | x8 | x8 | x6 |] %17

